images/buy.svg

<svg width="80" height="64" viewBox="0 0 80 64" fill="none" xmlns="http://www.w3.org/2000/svg">
<rect x="1.90625" y="12.5" width="12" height="12" rx="1" stroke="#79EFBD" stroke-width="2"/>
<rect x="70.9062" y="50.5" width="7" height="7" rx="1" stroke="#79EFBD" stroke-width="2"/>
<mask id="mask0_1812_50579" style="mask-type:alpha" maskUnits="userSpaceOnUse" x="23" y="16" width="42" height="38">
<rect x="24.8068" y="52.3065" width="34.6129" height="38.1936" rx="1.19355" transform="rotate(-90 24.8068 52.3065)" fill="#C4C4C4" stroke="#79EFBD" stroke-width="2.3871"/>
</mask>
<g mask="url(#mask0_1812_50579)">
<circle cx="43.9062" cy="31.5" r="8" fill="#F7F6FF"/>
<circle cx="43.9062" cy="58.5" r="17" fill="#F7F6FF"/>
<rect x="24.8068" y="52.3065" width="34.6129" height="38.1936" rx="1.19355" transform="rotate(-90 24.8068 52.3065)" stroke="#F7F6FF" stroke-width="2.3871"/>
</g>
<path fill-rule="evenodd" clip-rule="evenodd" d="M70.7687 6.40146C69.8972 5.19902 68.1054 5.19902 67.2338 6.40146C66.6778 7.16866 65.6903 7.48951 64.7895 7.19568C63.3776 6.73515 61.928 7.78836 61.9297 9.27342C61.9308 10.2209 61.3205 11.0609 60.419 11.3527C59.0061 11.81 58.4524 13.5141 59.3267 14.7146C59.8845 15.4805 59.8845 16.5188 59.3267 17.2847C58.4524 18.4851 59.0061 20.1893 60.419 20.6466C61.3205 20.9383 61.9308 21.7783 61.9297 22.7258C61.928 24.2109 63.3776 25.2641 64.7895 24.8036C65.6903 24.5098 66.6778 24.8306 67.2338 25.5978C68.1054 26.8002 69.8972 26.8002 70.7687 25.5978C71.3248 24.8306 72.3123 24.5098 73.2131 24.8036C74.6249 25.2641 76.0745 24.2109 76.0728 22.7258C76.0717 21.7783 76.682 20.9383 77.5835 20.6466C78.9964 20.1893 79.5501 18.4851 78.6758 17.2847C78.118 16.5188 78.118 15.4805 78.6758 14.7146C79.5501 13.5141 78.9964 11.81 77.5835 11.3527C76.682 11.0609 76.0717 10.2209 76.0728 9.27342C76.0745 7.78836 74.6249 6.73515 73.2131 7.19568C72.3123 7.48951 71.3248 7.16866 70.7687 6.40146ZM74.0925 13.8686C74.4923 13.4851 74.5056 12.8502 74.1222 12.4503C73.7388 12.0505 73.1038 12.0372 72.704 12.4206L67.7346 17.1857L65.9571 15.6303C65.5402 15.2655 64.9065 15.3078 64.5417 15.7247C64.1769 16.1416 64.2192 16.7753 64.6361 17.1401L67.1051 19.3005C67.4965 19.6429 68.0846 19.6295 68.4599 19.2696L74.0925 13.8686Z" fill="#79EFBD"/>
<rect x="9.90625" y="45.5" width="8" height="8" fill="#79EFBD"/>
</svg>

<svg xmlns="http://www.w3.org/2000/svg" width="80" height="64" fill="none"><rect width="12" height="12" x="1.906" y="12.5" stroke="#79EFBD" stroke-width="2" rx="1"/><rect width="7" height="7" x="70.906" y="50.5" stroke="#79EFBD" stroke-width="2" rx="1"/><mask id="a" width="42" height="38" x="23" y="16" maskUnits="userSpaceOnUse" style="mask-type:alpha"><rect width="34.613" height="38.194" x="24.807" y="52.306" fill="#C4C4C4" stroke="#79EFBD" stroke-width="2.387" rx="1.194" transform="rotate(-90 24.807 52.306)"/></mask><g mask="url(#a)"><circle cx="43.906" cy="31.5" r="8" fill="#F7F6FF"/><circle cx="43.906" cy="58.5" r="17" fill="#F7F6FF"/><rect width="34.613" height="38.194" x="24.807" y="52.306" stroke="#F7F6FF" stroke-width="2.387" rx="1.194" transform="rotate(-90 24.807 52.306)"/></g><path fill="#79EFBD" fill-rule="evenodd" d="M70.769 6.401a2.183 2.183 0 0 0-3.535 0 2.183 2.183 0 0 1-2.444.795 2.183 2.183 0 0 0-2.86 2.077 2.183 2.183 0 0 1-1.511 2.08 2.183 2.183 0 0 0-1.092 3.362 2.183 2.183 0 0 1 0 2.57 2.183 2.183 0 0 0 1.092 3.362 2.183 2.183 0 0 1 1.51 2.079 2.183 2.183 0 0 0 2.86 2.078c.901-.294 1.889.027 2.445.794a2.183 2.183 0 0 0 3.535 0 2.183 2.183 0 0 1 2.444-.794 2.183 2.183 0 0 0 2.86-2.078 2.183 2.183 0 0 1 1.51-2.08 2.183 2.183 0 0 0 1.093-3.361 2.183 2.183 0 0 1 0-2.57c.874-1.2.32-2.905-1.093-3.362a2.183 2.183 0 0 1-1.51-2.08 2.183 2.183 0 0 0-2.86-2.077A2.183 2.183 0 0 1 70.77 6.4Zm3.323 7.468a1.003 1.003 0 0 0-1.388-1.448l-4.97 4.765-1.777-1.556a1.003 1.003 0 0 0-1.32 1.51l2.468 2.16c.391.343.98.33 1.355-.03l5.633-5.401Z" clip-rule="evenodd"/><path fill="#79EFBD" d="M9.906 45.5h8v8h-8z"/></svg>
